X:9
T:Grafenörtler-Juiz  Bb
T:Anni Wallimann  (23.8.1928-31.2.2014)
T:Dirigenten-Notiz, Edi Gasser
C:Unterwalden (CH)
%%partsbox
M:2/4
R:Naturjodel
L:1/4
K:Bb
[P:A] F | D>B, | DG | F>D | !breath!FD/F/ | !fermata!f>d | cB | A>F | !breath!EF | f>e | df |  
ed/f/ | !breath!c>B | AF/f/ | dc | B>c | !fermata! !breath!dF | D>B, | DG | F>D   | !breath!FD/F/ | !fermata!f>d | 
cB | A>F | !breath!EF | f>e | df | ed/f/ | !breath!c>B | AF/f/ | dc | (B2 | !fermata!B)z ||  
M:2/4
L:1/8
[P:B] f2ed | cF Fe | d2Bd | F2FB | AF Ac | f2ce | d2B2 | !fermata!F2z2 | 
f2ed | cF Fe | d2Bd | F2FB | AF Ac | f2dc | (B4 | B2)z2 || 
M:2/4
L:1/4
[P:C] F | D>B, | DG | F>D | !breath!FD/F/ | !fermata!f>d | cB | A>F | !breath!EF | 
f>e | df | ed/f/ | !breath!c>B | AF/f/ | dc | (B2 | B)z || 
M:3/4
[P:D] G>BE | G/G/ G/B/ E/G/ | F>D F/e/ | d3 | c>EF | f>dc | B>F B/d/ | f2z | 
G>BE | G/G/ G/B/ E/G/ | F>D F/e/ | d3 | c>EF | f>dc | B3 | B>zz |] 
W:
W: notiert Edi Gasser. Angaben: Anni Wallimann
W:
W:UJV-Naturjodelsammlung: Code-Nr: 06-05
W:http://www.naturjodler.ch/code 06.htm  (with AUDIO)
%May 1, 2018

